public/img/events/winds-prayer.svg

<svg width="200" height="200" viewBox="0 0 200 200" fill="none" xmlns="http://www.w3.org/2000/svg">
<path d="M173.377 108.753C164.997 113.734 154.987 115.114 145.385 113.995C135.406 112.838 125.923 108.862 117.245 103.984C108.189 98.8949 99.953 92.5296 90.9967 87.2728C82.8699 82.5037 74.0577 79.0205 64.7089 77.5178C55.7725 76.0842 46.4883 76.3354 37.7903 78.9564C28.6403 81.7154 20.7768 87.1397 14.4085 94.1603C8.00549 101.22 2.74496 109.719 0.782818 119.109C-0.985594 127.568 0.186717 136.515 4.86605 143.896C9.62487 151.399 17.7069 156.242 26.7675 155.991C35.9325 155.735 44.2977 150.325 48.1822 142.068C49.0714 140.171 49.7321 138.19 50.1046 136.126C50.3878 134.574 47.9935 133.909 47.7103 135.471C46.1754 143.93 39.7177 150.956 31.2432 152.946C26.8321 153.981 22.1031 153.66 17.8907 151.98C14.2545 150.532 11.1151 148.019 8.68107 144.999C3.57453 138.668 1.66206 130.209 2.74496 122.257C3.98682 113.123 8.69099 104.679 14.6023 97.6928C20.5433 90.6771 27.8653 84.9375 36.6577 81.9125C44.9782 79.05 53.9991 78.4835 62.6872 79.6856C71.6683 80.9271 80.2372 84.0162 88.1056 88.4503C96.903 93.4065 104.91 99.5994 113.604 104.728C122.013 109.689 131.084 113.857 140.736 115.739C149.861 117.523 159.612 117.237 168.36 113.902C170.535 113.069 172.637 112.069 174.634 110.882C176 110.064 174.753 107.935 173.377 108.753Z" fill="black"/>
<path d="M13.743 125.548C11.5176 130.096 12.5806 136.047 16.5248 139.368C20.8663 143.024 27.2743 142.95 32.0828 140.25C34.4573 138.92 36.4393 137.018 38.0636 134.865C39.8122 132.554 41.2627 129.82 41.8339 126.967C42.8671 121.775 40.7013 116.163 36.5436 112.862C31.5066 108.867 24.279 108.556 18.6906 111.611C17.2898 112.374 18.5415 114.503 19.9424 113.739C24.0803 111.478 29.3954 111.369 33.5085 113.759C37.2986 115.961 39.7277 120.272 39.6184 124.632C39.5539 127.169 38.5157 129.569 37.2142 131.712C36.0071 133.702 34.4722 135.535 32.6094 136.954C29.0328 139.683 23.9312 140.792 19.7933 138.614C15.6604 136.437 13.8324 130.992 15.884 126.79C16.177 126.194 16.0479 125.46 15.4369 125.105C14.9004 124.79 14.041 124.947 13.743 125.548Z" fill="black"/>
<path d="M171.509 86.1395C163.859 90.6967 154.977 92.2634 146.15 91.5737C137.353 90.8888 128.739 88.1052 120.856 84.2525C112.784 80.3111 105.402 75.1627 97.9062 70.2705C90.4252 65.3881 82.7157 60.7323 74.2363 57.7615C64.7485 54.436 54.3367 53.2191 44.3521 54.5493C43.0755 54.7217 41.8038 54.9287 40.5371 55.1848C39.8814 55.3179 39.4989 56.0914 39.6678 56.7023C39.8566 57.3822 40.5371 57.6926 41.1978 57.5645C51.1525 55.5642 61.6438 56.4165 71.3104 59.3972C79.8743 62.0379 87.6434 66.5902 95.1194 71.4135C102.655 76.2762 110.002 81.4739 118 85.5827C126.002 89.6916 134.645 92.6822 143.607 93.7857C152.503 94.8795 161.678 93.835 169.78 89.8887C170.799 89.3911 171.792 88.8492 172.766 88.2727C174.132 87.4549 172.885 85.3216 171.509 86.1395Z" fill="black"/>
<path d="M199.406 65.1517C191.478 60.4418 181.777 62.176 173.913 66.0582C169.746 68.1176 165.985 70.8224 162.096 73.3399C158.47 75.6851 154.709 77.6853 150.497 78.7593C146.647 79.7398 142.549 80.0304 138.625 79.3013C134.601 78.5524 130.94 76.7542 127.93 73.9952C122.282 68.8172 117.473 60.1856 121.124 52.5935C122.689 49.3369 125.635 46.7701 129.38 46.4942C133.339 46.2035 136.98 48.2728 138.744 51.7954C139.151 52.6083 139.41 53.4852 139.573 54.377C139.693 55.0322 140.497 55.4017 141.103 55.2392C141.799 55.0519 142.092 54.3819 141.973 53.7217C141.203 49.5094 138.058 45.9424 133.975 44.5925C129.768 43.2032 125.049 44.3117 121.874 47.3465C119.023 50.071 117.463 54.0518 117.399 57.9439C117.319 62.5011 119.137 66.9401 121.735 70.6302C124.343 74.3351 127.741 77.6607 131.869 79.6609C135.739 81.5331 140.07 82.3066 144.357 82.1342C148.763 81.9568 153.085 80.8483 157.084 79.0155C161.495 76.9906 165.379 74.0395 169.448 71.4432C176.993 66.6347 186.317 62.6834 195.288 65.9006C196.292 66.2602 197.246 66.7283 198.16 67.2751C199.526 68.093 200.777 65.9646 199.406 65.1517Z" fill="black"/>
<path d="M125.744 58.003C125.083 56.6038 125.55 54.707 126.787 53.7611C128.357 52.554 130.582 52.8841 132.147 53.8892C133.776 54.9386 135.182 56.9388 135.47 58.8553C135.733 60.5994 134.884 62.4568 133.483 63.516C131.744 64.8364 129.246 64.8364 127.373 63.8264C125.967 63.0677 124.711 65.196 126.121 65.9547C128.66 67.3194 131.918 67.413 134.407 65.8661C136.642 64.4767 138.113 61.8705 137.993 59.2396C137.745 53.7611 131.188 48.2579 125.853 51.4307C123.161 53.0319 122.306 56.5053 123.603 59.2495C123.886 59.8505 124.76 60.0033 125.302 59.6929C125.918 59.3234 126.027 58.6041 125.744 58.003Z" fill="black"/>
</svg>

<svg xmlns="http://www.w3.org/2000/svg" width="200" height="200" fill="none"><path fill="#000" d="M173.377 108.753c-8.38 4.981-18.39 6.361-27.992 5.242-9.979-1.157-19.462-5.133-28.14-10.011-9.056-5.09-17.292-11.454-26.248-16.711-8.127-4.77-16.94-8.252-26.288-9.755-8.937-1.434-18.22-1.183-26.919 1.438-9.15 2.76-17.013 8.184-23.381 15.204C8.005 101.22 2.745 109.72.783 119.11c-1.769 8.459-.596 17.406 4.083 24.787 4.759 7.503 12.84 12.346 21.902 12.095 9.164-.256 17.53-5.666 21.414-13.923.89-1.897 1.55-3.878 1.923-5.942.283-1.552-2.111-2.217-2.395-.655-1.535 8.459-7.992 15.485-16.467 17.475-4.41 1.035-9.14.714-13.352-.966-3.636-1.448-6.776-3.961-9.21-6.981-5.106-6.331-7.019-14.79-5.936-22.742 1.242-9.134 5.946-17.578 11.857-24.564 5.941-7.016 13.263-12.755 22.056-15.78 8.32-2.863 17.341-3.43 26.03-2.227 8.98 1.241 17.55 4.33 25.418 8.764 8.797 4.956 16.804 11.15 25.498 16.278 8.409 4.961 17.48 9.129 27.132 11.011 9.125 1.784 18.876 1.498 27.624-1.837a41 41 0 0 0 6.274-3.02c1.366-.818.119-2.947-1.257-2.129"/><path fill="#000" d="M13.743 125.548c-2.225 4.548-1.162 10.499 2.782 13.82 4.341 3.656 10.75 3.582 15.558.882 2.374-1.33 4.356-3.232 5.98-5.385 1.75-2.311 3.2-5.045 3.77-7.898 1.034-5.192-1.132-10.804-5.29-14.105-5.036-3.995-12.264-4.306-17.852-1.251-1.401.763-.15 2.892 1.251 2.128 4.138-2.261 9.453-2.37 13.566.02 3.79 2.202 6.22 6.513 6.11 10.873-.064 2.537-1.102 4.937-2.404 7.08-1.207 1.99-2.742 3.823-4.605 5.242-3.576 2.729-8.678 3.838-12.816 1.66-4.133-2.177-5.96-7.622-3.909-11.824.293-.596.164-1.33-.447-1.685-.537-.315-1.396-.158-1.694.443M171.509 86.14c-7.65 4.557-16.532 6.123-25.359 5.434-8.797-.685-17.411-3.469-25.294-7.321-8.072-3.942-15.454-9.09-22.95-13.983-7.48-4.882-15.19-9.538-23.67-12.508-9.487-3.326-19.9-4.543-29.884-3.213a59 59 0 0 0-3.815.636c-.656.133-1.038.906-.87 1.517.19.68.87.99 1.53.863 9.956-2 20.447-1.148 30.113 1.832 8.564 2.64 16.333 7.193 23.81 12.017 7.535 4.862 14.882 10.06 22.88 14.169 8.002 4.109 16.645 7.1 25.607 8.203 8.896 1.093 18.071.049 26.173-3.897a42 42 0 0 0 2.986-1.616c1.366-.818.119-2.951-1.257-2.133"/><path fill="#000" d="M199.406 65.152c-7.928-4.71-17.629-2.976-25.493.906-4.167 2.06-7.928 4.764-11.817 7.282-3.626 2.345-7.387 4.345-11.599 5.42-3.85.98-7.948 1.27-11.872.541-4.024-.749-7.685-2.547-10.695-5.306-5.648-5.178-10.457-13.81-6.806-21.402 1.565-3.256 4.511-5.823 8.256-6.099 3.959-.29 7.6 1.779 9.364 5.301.407.813.666 1.69.829 2.582.12.655.924 1.025 1.53.862.696-.187.989-.857.87-1.517-.77-4.213-3.915-7.78-7.998-9.13-4.207-1.389-8.926-.28-12.101 2.755-2.851 2.724-4.411 6.705-4.475 10.597-.08 4.557 1.738 8.996 4.336 12.686 2.608 3.705 6.006 7.03 10.134 9.03 3.87 1.873 8.201 2.647 12.488 2.474 4.406-.177 8.728-1.286 12.727-3.118 4.411-2.025 8.295-4.977 12.364-7.573 7.545-4.808 16.869-8.76 25.84-5.542 1.004.36 1.958.827 2.872 1.374 1.366.818 2.617-1.31 1.246-2.123"/><path fill="#000" d="M125.744 58.003c-.661-1.4-.194-3.296 1.043-4.242 1.57-1.207 3.795-.877 5.36.128 1.629 1.05 3.035 3.05 3.323 4.966.263 1.744-.586 3.602-1.987 4.661-1.739 1.32-4.237 1.32-6.11.31-1.406-.758-2.662 1.37-1.252 2.129 2.539 1.364 5.797 1.458 8.286-.089 2.235-1.39 3.706-3.995 3.586-6.626-.248-5.479-6.805-10.982-12.14-7.81-2.692 1.602-3.547 5.075-2.25 7.82.283.6 1.157.753 1.699.443.616-.37.725-1.089.442-1.69"/></svg>
